X: 32425
T: Piper's Picnic, The
R: jig
M: 6/8
K: Amixolydian
|:~A3 AGE|cde dBG|~A3 AGE|E E3 GAB|
~A3 AGE|cde dBG|cBA BAG|1 EFG A2G:|2 EFG A2B||
|:cee cee|ceg edc|B.g.g g2d|(3Bcd g dBG|
cBc d (3Bcd|ede a2g|edc BAG|1 EFG A2B:|2 EFG A3||

